X: 16191
T: There are few good Fellows When Jamies awa
N: The song title starts with "There", but the index has "There".
%R: air, waltz, minuet
B: James Oswald "The Caledonian Pocket Companion" v.1 b.6 p.19 #1
S: https://ia800501.us.archive.org/18/items/caledonianpocket01rugg/caledonianpocket01rugg_bw.pdf
N: Bar 21 has an extra 8th note; fixed by changing first two notes to 16th notes.
Z: 2020 John Chambers <jc:trillian.mit.edu>
M: 3/4
L: 1/8
K: Gm
%%slurgraces 1
%%graceslurs 1
"_Slow"G>A |\
{A}B2 {d}cB{B}AG | A2(BA)(GF) | D2F2F>G | F4(G>A) |\
(B3/c//d//) cBAG | A2{c}BA{A}GF | D2G2G>A | G4(F/G/A) |
B3cde | f>gfdcB | A2A2f2 | F4(GA) |\
(B2c2)d2 | D3B (A/G/F) | D2G2GA | G4 :|
|: ga |\
b2(c'b)(ag) | a2{ga}baTg>f | {c}d2f2f>g | f4ga |\
(b/a/g) d'bag | d3c (B/d/c/e/) | d2g2(^f/g/a) | g4G>A |
B3c(de) | {de}f2(ed)(cB) | (Adc)BAG | (F2G2)A2 |\
(3(BAG) (3(cBA) d2 | D3f (3(edc) | {c}d2g2g>a | g4 :|


